X:4872
L:1/4
M:3/4
K:C
 G | G c c | B c d | e G G | (G A) B | c c c | G c (c/d/) | e d c | d2 |: (B/c/) | d d e | 
 f !fermata!f (e/d/) | c/ c/ e g | (g e) g | f (d/e/) f | e c e | d c B | c2 :|

